X:42
T:College Grove (reel), The 
T:Cottage Grove
B:CRE2.265 (GarrÃÂÃÂÃÂÃÂ¡n an CholÃÂÃÂÃÂÃÂ¡iste)
F:file ID: cre.2/042coll_g
N:O'Neill's four-part setting of this (file ID dmi1001/030coll_g )  
seems to be the "session standard" for this tune.
L:1/8
M:C
R:reel
Q:180
K:G
"D modal"
(3DDD FD ADFD|E2cB dBcB|AFFA dfed|cAGE EDCE|
(3DDD FD ADFD|E2cB dBcB|AFFA dfed|cAGE EDe||
g|fdd2 fgaf|ecc2 efge|fdd2 dfed|cAGE EDeg|
fdd2 fgaf|ecc2 efge|dBeg fagb|afge fdd2||

%%%

